src/assets/tokens/USDV.svg

<svg width="181" height="181" viewBox="0 0 181 181" fill="none" xmlns="http://www.w3.org/2000/svg">
<path d="M90.5 180.275C140.206 180.275 180.5 139.981 180.5 90.2749C180.5 40.5693 140.206 0.274902 90.5 0.274902C40.7944 0.274902 0.5 40.5693 0.5 90.2749C0.5 139.981 40.7944 180.275 90.5 180.275Z" fill="url(#paint0_radial_1405_92832)"/>
<path fill-rule="evenodd" clip-rule="evenodd" d="M97.4745 21.0312H83.5117V41.7342H62.5132C47.1231 41.7342 34.5312 54.2153 34.5312 69.47C34.5312 84.7247 47.1231 97.2058 62.5132 97.2058H62.5196V97.2081H118.484C126.179 97.2081 132.475 103.449 132.475 111.076C132.475 118.703 126.179 124.944 118.484 124.944H62.5196V138.812H83.5117V159.517H97.4745V138.812H118.484C133.874 138.812 146.466 126.331 146.466 111.076C146.466 95.8213 133.874 83.3402 118.484 83.3402H118.477V83.3379H62.5132C54.8182 83.3379 48.5222 77.0974 48.5222 69.47C48.5222 61.8427 54.8182 55.6021 62.5132 55.6021H118.477V41.7342H97.4745V21.0312ZM62.5132 138.81C47.1231 138.81 34.5312 126.329 34.5312 111.074H48.5222C48.5222 118.702 54.8182 124.942 62.5132 124.942V138.81ZM146.462 69.47C146.462 54.2153 133.871 41.7342 118.48 41.7342V55.6021C126.176 55.6021 132.471 61.8427 132.471 69.47H146.462Z" fill="url(#paint1_linear_1405_92832)"/>
<defs>
<radialGradient id="paint0_radial_1405_92832" cx="0" cy="0" r="1" gradientUnits="userSpaceOnUse" gradientTransform="translate(19.25 24.0249) rotate(38.3201) scale(197.563)">
<stop stop-color="#0A0A0A"/>
<stop offset="1" stop-color="#373737"/>
</radialGradient>
<linearGradient id="paint1_linear_1405_92832" x1="126.758" y1="135.275" x2="35.5075" y2="50.2749" gradientUnits="userSpaceOnUse">
<stop stop-color="white"/>
<stop offset="1" stop-color="#F1F1F1"/>
</linearGradient>
</defs>
</svg>

<svg fill="none" height="181" width="181" xmlns="http://www.w3.org/2000/svg"><radialGradient id="a" cx="0" cy="0" gradientTransform="rotate(38.32 -24.948 39.714) scale(197.563)" gradientUnits="userSpaceOnUse" r="1"><stop offset="0" stop-color="#0a0a0a"/><stop offset="1" stop-color="#373737"/></radialGradient><linearGradient id="b" gradientUnits="userSpaceOnUse" x1="126.758" x2="35.508" y1="135.275" y2="50.275"><stop offset="0" stop-color="#fff"/><stop offset="1" stop-color="#f1f1f1"/></linearGradient><path d="M90.5 180.275c49.706 0 90-40.294 90-90s-40.294-90-90-90-90 40.294-90 90 40.294 90 90 90z" fill="url(#a)"/><path clip-rule="evenodd" d="M97.475 21.031H83.512v20.703H62.513c-15.39 0-27.982 12.481-27.982 27.736s12.592 27.736 27.982 27.736h.007v.002h55.964c7.695 0 13.991 6.241 13.991 13.868s-6.296 13.868-13.991 13.868H62.52v13.868h20.992v20.705h13.963v-20.705h21.009c15.39 0 27.982-12.481 27.982-27.736S133.874 83.34 118.484 83.34h-.007v-.002H62.513c-7.695 0-13.99-6.24-13.99-13.868 0-7.627 6.295-13.868 13.99-13.868h55.964V41.734H97.475zM62.513 138.81c-15.39 0-27.982-12.481-27.982-27.736h13.991c0 7.628 6.296 13.868 13.991 13.868zm83.949-69.34c0-15.255-12.591-27.736-27.982-27.736v13.868c7.696 0 13.991 6.24 13.991 13.868z" fill="url(#b)" fill-rule="evenodd"/></svg>
